X: 49
T:Squirrel In The Tree
M:6/8
L:1/8
Q:110
S:Buddy MacMaster
Z:C.G.P
K:G
|:BBB BBB|B2A GAB|ccc c2B|c2d efg|fff fff|fed
cBA|!|1GBde2d|B3Bdc:|2GBd g2a|g3d2g|| bbb bbb|b2a gfe|dddd2e|!d2c
Bdg|fff fff|fed cBA|1GBde2d|B3Bdg:|2GBd bfa| g3g3||



